static/images/union.svg

<?xml version="1.0" encoding="UTF-8"?>
<svg width="273px" height="147px" viewBox="0 0 273 147" version="1.1" xmlns="http://www.w3.org/2000/svg" xmlns:xlink="http://www.w3.org/1999/xlink">
    <!-- Generator: Sketch 64 (93537) - https://sketch.com -->
    <title>Labor Unions</title>
    <desc>Created with Sketch.</desc>
    <defs>
        <rect id="path-1" x="0" y="0.432836621" width="273" height="146" rx="8"></rect>
    </defs>
    <g id="Labor-Unions" stroke="none" stroke-width="1" fill="none" fill-rule="evenodd">
        <g>
            <mask id="mask-2" fill="white">
                <use xlink:href="#path-1"></use>
            </mask>
            <use id="Rectangle-3-Copy-10" fill="#F8F4E9" xlink:href="#path-1"></use>
            <path d="M207.190549,80.4611913 C213.346515,80.4611913 214.08679,76.1916678 219.617809,71.1870869 C225.148827,66.1825059 217.342773,66.561831 215.261319,66.1825059 C213.179866,65.8031807 205.109392,59.0016582 209.144629,51.9038204 C211.834787,47.1719285 217.74313,46.1960558 226.869659,48.9762021 C230.021287,50.9479901 231.198155,54.2454335 230.400264,58.8685324 C229.203429,65.8031807 227.793607,64.3839999 229.096936,66.1825059 C230.400264,67.9810118 241.11612,67.0677812 244.682425,77.6522442 C248.24873,88.2367071 243.110443,101.660596 240.390637,103.863765 C237.67083,106.066934 238.878558,109.472323 240.390637,110.329678 C241.902716,111.187034 251,125.459266 251,139.634167 C251,153.809068 246.216287,149.453799 242.813352,149.453799 C239.410418,149.453799 236.27311,150.162755 236.27311,139.634167 C236.27311,129.105579 228.176618,128.057768 225.384203,128.581674 C222.591788,129.105579 213.66574,137.771057 212.425944,144.397987 C211.186148,151.024917 209.931236,151.701428 207.190549,151.363172 C204.449862,151.024917 197.849112,150.451143 197.849112,143.297904 C197.849112,136.144665 205.41798,115.48102 210.339649,112.905349 C215.261319,110.329678 217.913963,108.716504 216.587641,107.358074 C215.261319,105.999643 202.099755,105.767731 197.849112,83.0078611 C193.598469,60.2479913 194.229484,52.7222495 198.905571,51.9038204 C203.581658,51.0853914 201.034583,80.4611913 207.190549,80.4611913 Z" id="Path-Copy-7" fill="#014A7F" mask="url(#mask-2)"></path>
            <path d="M222.013684,10.4328366 C216.73656,13.8072318 216.663141,17.0989726 221.793428,20.3080592 C229.488858,25.1216891 241.424638,47.7284437 237.937397,55.9770631 C234.450157,64.2256826 243.213402,69.9455296 245.357622,63.9455669 C247.501842,57.9456043 250.247993,49.7325399 244.897348,37.1635923 C241.330252,28.7842939 233.702364,19.874042 222.013684,10.4328366 Z" id="Path-2-Copy-5" fill="#014A7F" mask="url(#mask-2)"></path>
            <path d="M170.005902,74.0694377 C143.821886,118.740096 106.268829,113.408326 57.346732,58.0741278 C-16.0364137,-24.92717 68.494621,-48.2246049 88.3881661,-56.6118747 C108.281711,-64.9991446 182.890496,-104.153083 189.987979,-70.6814318 C197.085463,-37.2097809 232.987602,-7.64169218 206.007133,26.3990941 C188.020153,49.0929516 176.019743,64.9830662 170.005902,74.0694377 Z" id="Path-3-Copy-3" fill="#B6C3CE" mask="url(#mask-2)" transform="translate(121.915240, 10.000000) rotate(63.000000) translate(-121.915240, -10.000000) "></path>
            <path d="M52.190549,80.4611913 C58.3465153,80.4611913 59.0867897,76.1916678 64.6178086,71.1870869 C70.1488275,66.1825059 62.342773,66.561831 60.2613193,66.1825059 C58.1798656,65.8031807 50.109392,59.0016582 54.1446288,51.9038204 C56.8347867,47.1719285 62.7431301,46.1960558 71.8696591,48.9762021 C75.0212865,50.9479901 76.198155,54.2454335 75.4002644,58.8685324 C74.2034285,65.8031807 72.7936067,64.3839999 74.0969355,66.1825059 C75.4002644,67.9810118 86.1161204,67.0677812 89.682425,77.6522442 C93.2487297,88.2367071 88.1104434,101.660596 85.390637,103.863765 C82.6708305,106.066934 83.8785577,109.472323 85.390637,110.329678 C86.9027163,111.187034 96,125.459266 96,139.634167 C96,153.809068 91.216287,149.453799 87.8133522,149.453799 C84.4104175,149.453799 81.2731101,150.162755 81.2731101,139.634167 C81.2731101,129.105579 73.1766184,128.057768 70.384203,128.581674 C67.5917877,129.105579 58.6657398,137.771057 57.4259437,144.397987 C56.1861476,151.024917 54.9312363,151.701428 52.190549,151.363172 C49.4498616,151.024917 42.8491122,150.451143 42.8491122,143.297904 C42.8491122,136.144665 50.4179796,115.48102 55.3396495,112.905349 C60.2613193,110.329678 62.9139626,108.716504 61.5876409,107.358074 C60.2613193,105.999643 47.0997552,105.767731 42.8491122,83.0078611 C38.5984691,60.2479913 39.2294843,52.7222495 43.9055709,51.9038204 C48.5816575,51.0853914 46.0345826,80.4611913 52.190549,80.4611913 Z" id="Path-Copy-8" fill="#014A7F" mask="url(#mask-2)" transform="translate(68.000000, 99.432837) scale(-1, 1) translate(-68.000000, -99.432837) "></path>
            <path d="M61.9863164,19.4328366 C67.2634401,22.8072318 67.3368587,26.0989726 62.206572,29.3080592 C54.5111421,34.1216891 42.575362,56.7284437 46.0626026,64.9770631 C49.5498433,73.2256826 40.7865978,78.9455296 38.6423779,72.9455669 C36.498158,66.9456043 33.7520072,58.7325399 39.1026517,46.1635923 C42.669748,37.7842939 50.2976362,28.874042 61.9863164,19.4328366 Z" id="Path-2-Copy-6" fill="#014A7F" mask="url(#mask-2)"></path>
        </g>
    </g>
</svg>

<svg width="273" height="147" xmlns="http://www.w3.org/2000/svg" xmlns:xlink="http://www.w3.org/1999/xlink"><defs><rect id="a" x="0" y=".43" width="273" height="146" rx="8"/></defs><g fill="none" fill-rule="evenodd"><mask id="b" fill="#fff"><use xlink:href="#a"/></mask><use fill="#F8F4E9" xlink:href="#a"/><path d="M207.2 80.46c6.15 0 6.89-4.27 12.42-9.27s-2.28-4.63-4.36-5c-2.08-.39-10.15-7.19-6.12-14.29 2.7-4.73 8.6-5.7 17.73-2.92 3.15 1.97 4.33 5.27 3.53 9.89-1.2 6.93-2.6 5.51-1.3 7.31 1.3 1.8 12.02.89 15.58 11.47 3.57 10.59-1.57 24.01-4.29 26.21-2.72 2.2-1.51 5.61 0 6.47 1.51.86 10.61 15.13 10.61 29.3 0 14.18-4.78 9.82-8.19 9.82-3.4 0-6.54.71-6.54-9.82 0-10.52-8.1-11.57-10.89-11.05-2.79.53-11.71 9.2-12.95 15.82-1.24 6.62-2.5 7.3-5.24 6.96-2.74-.34-9.34-.9-9.34-8.06s7.57-27.82 12.49-30.4c4.92-2.57 7.57-4.18 6.25-5.54-1.33-1.36-14.49-1.6-18.74-24.35-4.25-22.76-3.62-30.29 1.06-31.1 4.67-.82 2.12 28.55 8.28 28.55z" fill="#014A7F" mask="url(#b)"/><path d="M222.01 10.43c-5.27 3.38-5.35 6.67-.22 9.88 7.7 4.81 19.63 27.42 16.15 35.67-3.49 8.25 5.27 13.97 7.42 7.97 2.14-6 4.89-14.22-.46-26.79-3.57-8.38-11.2-17.29-22.89-26.73z" fill="#014A7F" mask="url(#b)"/><path d="M170 74.07c-26.18 44.67-63.73 39.34-112.65-16-73.39-83 11.14-106.3 31.04-114.68 19.9-8.39 94.5-47.54 101.6-14.07 7.1 33.47 43 63.04 16.02 97.08-17.99 22.7-29.99 38.58-36 47.67z" fill="#B6C3CE" mask="url(#b)" transform="rotate(63 121.92 10)"/><path d="M52.2 80.46c6.15 0 6.89-4.27 12.42-9.27s-2.28-4.63-4.36-5C58.18 65.8 50.11 59 54.14 51.9c2.7-4.73 8.6-5.7 17.73-2.92 3.15 1.97 4.33 5.27 3.53 9.89-1.2 6.93-2.6 5.51-1.3 7.31 1.3 1.8 12.02.89 15.58 11.47 3.57 10.59-1.57 24.01-4.29 26.21-2.72 2.2-1.51 5.61 0 6.47 1.51.86 10.61 15.13 10.61 29.3 0 14.18-4.78 9.82-8.19 9.82-3.4 0-6.54.71-6.54-9.82 0-10.52-8.1-11.57-10.89-11.05-2.79.53-11.71 9.2-12.95 15.82-1.24 6.62-2.5 7.3-5.24 6.96-2.74-.34-9.34-.9-9.34-8.06s7.57-27.82 12.49-30.4c4.92-2.57 7.57-4.18 6.25-5.54C60.26 106 47.1 105.76 42.85 83c-4.25-22.76-3.62-30.29 1.06-31.1 4.67-.82 2.12 28.55 8.28 28.55z" fill="#014A7F" mask="url(#b)" transform="matrix(-1 0 0 1 136 0)"/><path d="M61.99 19.43c5.27 3.38 5.35 6.67.22 9.88-7.7 4.81-19.63 27.42-16.15 35.67 3.49 8.25-5.27 13.97-7.42 7.97-2.14-6-4.89-14.22.46-26.79C42.67 37.78 50.3 28.87 62 19.43z" fill="#014A7F" mask="url(#b)"/></g></svg>
